public/assets/images/Icons/ember-simple-auth.svg

<svg xmlns="http://www.w3.org/2000/svg" width="58" height="77" viewBox="0 0 58 77">
  <path fill="#E15D44" d="M29.3464962,77 L28.580442,77 L28.3286371,76.8303594 C25.9973734,75.2662969 23.5549845,73.756375 21.1929841,72.2993906 C16.5913552,69.6045345 12.1762389,66.5924994 7.97854909,63.284375 L7.93953707,63.2506875 C5.69850677,61.3847151 3.79874813,59.1307634 2.32771717,56.5925938 C0.820697184,53.6382102 0.0230001132,50.3624474 0,47.0337656 L0,10.8714375 L0.373569642,10.5646406 C8.52328674,3.84920293 18.6601512,0.12709476 29.1455251,0 L29.1691688,0 C39.5411669,0.20999977 49.5492971,3.92826023 57.614842,10.56825 L57.9884116,10.87625 L57.9884116,11.3659219 C57.9836829,16.6428281 57.9836829,21.9197344 57.9884116,27.1966406 L57.9884116,46.074875 C58.1010684,49.5360316 57.3909487,52.9737047 55.9184102,56.0957031 C53.7361015,60.4654531 49.9105592,63.5069531 46.4964164,66.0142656 C43.1070994,68.3904375 39.5676453,70.5861406 36.144045,72.7120625 C33.9485866,74.0626565 31.7681105,75.4383163 29.6030297,76.8387813 L29.3464962,77 Z M9.26712792,61.7082813 C13.3878117,64.9506852 17.720246,67.9043442 22.2344868,70.5488438 C24.4593541,71.9192031 26.7539701,73.3352813 28.9729265,74.8127188 C31.0015515,73.4989063 33.0762817,72.2115625 35.0871739,70.9627188 C38.4871306,68.8524375 42.002941,66.6711719 45.327238,64.3455313 C48.5333167,61.9910156 52.1377908,59.1335938 54.1167642,55.1692969 C55.4424305,52.3347905 56.0774526,49.2169219 55.9680619,46.0796875 C55.975155,39.7857396 55.975155,33.4933958 55.9680619,27.2026563 L55.9680619,11.8616094 C48.3209146,5.6970877 38.9012735,2.24945909 29.1478895,2.0453125 C19.2848075,2.16925029 9.74058025,5.61858219 2.0097101,11.8531875 L2.0097101,46.998875 C2.0288519,49.9982728 2.743774,52.9506687 4.09626205,55.6156563 C5.45282032,57.9413716 7.20349255,60.0041188 9.26712792,61.7082813 Z M24.6094515,12.4333955 C30.3542988,11.1976727 36.3454625,12.6356214 40.9228011,16.3487884 C43.4489008,18.4592347 45.1299282,21.4225624 45.6537696,24.6885755 C46.4058723,27.9921883 45.6003945,31.3288372 45.2122125,34.6177673 C44.6881668,36.2879272 47.3423614,36.5754638 46.9626708,38.1660922 C46.8453725,38.5287041 46.565287,38.81421 46.2070426,38.9363438 C45.8487981,39.0584777 45.4544191,39.0029125 45.1430676,38.7864373 C43.4972937,38.1168137 42.5134761,36.4044456 42.7557481,34.6312265 C43.0808506,31.1673273 44.0185528,27.6238966 42.9983619,24.1807979 C42.1354581,20.7922294 39.8242623,17.965668 36.690404,16.4662502 C31.1102874,13.5590709 23.613522,13.7218045 18.7915734,18.0813498 C17.4220187,19.1923426 16.686899,20.8955385 15.3246227,22.0028606 C14.0533265,22.0860627 13.6615053,20.7168987 14.3044318,19.8004521 C16.5319809,15.9668028 20.2853846,13.2834953 24.6094515,12.4333955 Z M19.4089284,20.7827525 C23.3263797,15.8142647 30.32095,14.5370455 35.7371163,17.8012005 C38.4287723,19.4198764 40.2699226,22.1457876 40.768428,25.2502985 C41.4953719,28.772212 39.8672084,32.2546743 40.2575379,35.7706104 C40.7875266,38.1364851 43.2106732,38.7402075 45.1766448,39.6786671 C45.8416315,39.9843335 46.1633504,40.7480905 45.9179127,41.4384284 C45.8689736,41.5689987 45.7933526,41.6878967 45.6958905,41.7875115 C44.9689465,42.2657074 44.1286041,41.8197897 43.4004664,41.5878646 C41.1014614,40.7295028 38.7057692,39.2494862 37.9991176,36.7305888 C37.0967044,33.5900367 38.558948,30.4339431 38.5028456,27.2682856 C38.5516477,23.9730507 36.7059124,20.9428204 33.7580144,19.4784729 C30.1344597,17.6923857 25.8001447,18.2140284 22.7022591,20.8090533 C20.6300511,22.4767618 19.9484665,25.2789903 17.8846141,26.9514808 C16.8032071,27.8696295 15.5126363,28.5068667 14.1269465,28.8068812 C13.6712811,28.7901446 13.2668517,28.5097615 13.0907684,28.088519 C12.9146851,27.6672764 12.9990418,27.1819521 13.3068964,26.8450822 C14.4436421,26.267411 15.5339448,25.6023186 16.567998,24.8557869 C17.6045935,23.5630682 18.5536889,22.2023527 19.4089284,20.7827525 Z M26.2617359,20.2921867 C29.8381343,19.2158776 33.6154946,21.2031755 34.7780791,24.7726994 C35.5592523,27.3993729 34.1261045,29.9345583 32.8400996,32.1218478 C28.9772997,38.3033182 22.3008408,42.2565701 15.3647883,43.9515088 C15.0064909,44.0512814 14.6230509,43.9956295 14.3073758,43.7980377 C13.9917007,43.6004459 13.7725959,43.2789442 13.7031504,42.9114328 C13.8132085,41.633006 15.2260194,41.5222572 16.1698872,41.1791765 C22.8224205,39.2531098 29.2010048,34.9483507 32.0541412,28.4021314 C32.9682469,26.7530273 32.5851976,24.6826064 31.1425731,23.475012 C30.0661732,22.6033757 28.6542571,22.2716525 27.3055748,22.573527 C25.9568925,22.8754014 24.8178413,23.7781054 24.2101095,25.0266995 C22.2027455,29.4807288 17.6927563,32.2819521 13.1014197,33.391848 C11.8273776,33.4616679 11.5833358,31.4465206 12.7676566,31.1106627 C14.9783303,30.3817148 17.0619639,29.3089884 18.9428727,27.9314489 C21.8330939,25.7850883 22.3618513,21.1890115 26.2617359,20.2921867 Z M28.4109641,26.0683156 L28.4279853,26.0754152 C28.9683827,26.2886231 29.2458272,26.9135285 29.052098,27.4811428 C27.9094044,30.9528641 25.1428831,33.6649244 22.2231705,35.6007581 C19.7871243,37.172428 17.1114696,38.298539 14.3116911,38.9304866 C13.8711355,39.0030066 13.4306946,38.7996871 13.186009,38.4108411 C12.9413235,38.021995 12.9377754,37.5197422 13.1769408,37.1271795 C13.9368951,36.6180735 14.7775821,36.2538774 15.6597745,36.0515849 C19.2539267,34.9987302 22.4859398,32.899683 24.9772096,30.0003298 C25.7897914,28.9042325 26.5157647,27.7412058 27.147987,26.5226922 C27.4114476,26.0768741 27.9399226,25.8867466 28.4109641,26.0683156 Z M32.1896827,37.4454798 C32.4181338,37.2363087 32.7230234,37.1420533 33.0238903,37.1875877 C33.3247571,37.2331221 33.5913699,37.413871 33.7533687,37.6821343 C34.7647158,39.1624698 36.0310265,40.4339777 37.487832,41.4319245 C39.1043108,42.3583463 40.7740512,43.179914 42.487542,43.8919478 C43.6960512,44.5320982 42.5340668,46.4324337 41.4027207,45.8964113 C37.8350657,44.7013062 34.2401766,42.7406238 32.1624487,39.3623811 C31.7766336,38.7979601 31.5145063,37.8998564 32.1896827,37.4454798 Z M28.3859996,41.7017106 C29.8691183,41.2094693 31.0038686,42.6838267 32.1590445,43.3961567 C34.5919492,45.3970703 37.5264136,46.4809479 40.3065519,47.8050297 C40.7699225,48.0408599 41.016207,48.5786755 40.9007999,49.1026993 C40.7853929,49.6267231 40.3387631,49.9986069 39.8231482,50 C37.8103818,49.3894532 35.8692817,48.5464743 34.0359215,47.4867294 C32.2713847,46.5566773 30.7735143,45.1201846 28.9352187,44.3463244 C27.9124756,44.6018769 26.9358321,45.0273776 26.0427401,45.6065096 C23.6005446,46.9495169 21.0337938,48.0302685 18.3820406,48.8321101 C17.8952327,48.9244054 17.3085668,49.1941915 16.8648794,48.8321101 C16.522053,48.5914503 16.3360545,48.1719277 16.382321,47.7436923 C16.4285875,47.3154569 16.699438,46.9496035 17.085021,46.7945151 C18.8495577,46.0135553 20.7377823,45.5662783 22.4864326,44.7249716 C24.5244442,43.8801151 26.3321015,42.5146188 28.3859996,41.7017106 Z M24.95158,49.8193697 C26.3530816,48.9868552 27.8723477,48.3733887 29.4572975,48 C31.1401189,48.5112282 32.748784,49.2426339 34.2419465,50.1754184 C35.999864,51.1509657 37.982224,51.6974287 39.6506238,52.8333935 C40.4757422,53.5794003 39.716789,55.2161809 38.6477676,54.9762067 C35.355078,54.0267435 32.5073815,51.9765291 29.2756677,50.8444769 C26.3267774,51.9673997 23.5673011,53.5833129 20.5211092,54.4493068 C19.1264515,54.990553 18.3713903,52.6116782 19.6700436,52.0926036 C21.3669853,51.2005256 23.2429621,50.7036225 24.95158,49.8193697 Z M27.2735418,53.4115791 C29.0627942,52.3006001 30.8866773,53.6959275 32.510472,54.5691726 C33.1171504,54.9964722 34.0496139,55.3569577 33.985483,56.4042302 C34.1137448,57.2386298 33.3659784,57.8523874 32.7721261,58 C31.3933115,57.6674832 30.2197158,56.6015649 28.8357708,56.2908015 C27.6095878,56.5223202 26.5616887,57.4328569 25.3573102,57.7653737 C24.8886938,57.7984892 24.4425782,57.518838 24.1942225,57.0362827 C23.9458668,56.5537274 23.9349489,55.9453622 24.1657578,55.4501867 C25.0939933,54.553306 26.1462312,53.8630713 27.2735418,53.4115791 Z"/>
</svg>

<svg xmlns="http://www.w3.org/2000/svg" width="58" height="77"><path fill="#E15D44" d="M29.346 77h-.766l-.251-.17c-2.332-1.564-4.774-3.074-7.136-4.53a116.307 116.307 0 0 1-13.214-9.016l-.04-.033a24.922 24.922 0 0 1-5.611-6.658A21.368 21.368 0 0 1 0 47.033V10.872l.374-.306C8.524 3.849 18.66.127 29.146 0h.023c10.372.21 20.38 3.928 28.446 10.568l.373.308v.49c-.004 5.277-.004 10.554 0 15.83v18.879a21.834 21.834 0 0 1-2.07 10.02c-2.182 4.37-6.007 7.412-9.422 9.92-3.389 2.375-6.928 4.571-10.352 6.697a341.494 341.494 0 0 0-6.541 4.127l-.257.161zM9.267 61.708a114.849 114.849 0 0 0 12.967 8.84c2.225 1.371 4.52 2.787 6.739 4.265 2.029-1.314 4.103-2.601 6.114-3.85 3.4-2.11 6.916-4.292 10.24-6.617 3.206-2.355 6.81-5.212 8.79-9.177a19.832 19.832 0 0 0 1.851-9.09c.007-6.293.007-12.586 0-18.876V11.862c-7.647-6.165-17.067-9.613-26.82-9.817C19.285 2.17 9.74 5.62 2.01 11.853V47c.019 3 .734 5.952 2.086 8.617a22.79 22.79 0 0 0 5.171 6.092zM24.61 12.433a19.405 19.405 0 0 1 16.314 3.916 13.69 13.69 0 0 1 4.73 8.34c.753 3.303-.053 6.64-.44 9.929-.525 1.67 2.13 1.957 1.75 3.548a1.204 1.204 0 0 1-.756.77 1.19 1.19 0 0 1-1.064-.15 3.91 3.91 0 0 1-2.387-4.155c.325-3.464 1.263-7.007.242-10.45a11.76 11.76 0 0 0-6.308-7.715c-5.58-2.907-13.076-2.744-17.898 1.615-1.37 1.111-2.105 2.815-3.467 3.922-1.272.083-1.663-1.286-1.02-2.203a15.353 15.353 0 0 1 10.304-7.367zm-5.2 8.35A12.543 12.543 0 0 1 35.737 17.8a10.664 10.664 0 0 1 5.031 7.45c.727 3.521-.9 7.004-.51 10.52.53 2.365 2.953 2.97 4.919 3.908.665.305.986 1.07.74 1.76-.048.13-.124.249-.221.349-.727.478-1.567.032-2.296-.2-2.299-.858-4.694-2.339-5.4-4.857-.903-3.141.559-6.297.503-9.463a8.555 8.555 0 0 0-4.745-7.79 10.195 10.195 0 0 0-11.056 1.331c-2.072 1.668-2.754 4.47-4.817 6.142a8.626 8.626 0 0 1-3.758 1.856 1.17 1.17 0 0 1-.82-1.962 24.648 24.648 0 0 0 3.261-1.99 37.18 37.18 0 0 0 2.84-4.072zm6.853-.49c3.576-1.077 7.353.91 8.516 4.48.781 2.626-.652 5.162-1.938 7.349-3.863 6.181-10.54 10.135-17.475 11.83-.359.1-.742.044-1.058-.154a1.339 1.339 0 0 1-.604-.887c.11-1.278 1.523-1.389 2.467-1.732 6.652-1.926 13.031-6.23 15.884-12.777a3.94 3.94 0 0 0-.911-4.927 4.524 4.524 0 0 0-3.837-.901 4.55 4.55 0 0 0-3.096 2.453c-2.007 4.454-6.517 7.255-11.109 8.365-1.274.07-1.518-1.945-.333-2.281a22.237 22.237 0 0 0 6.175-3.18c2.89-2.146 3.419-6.742 7.319-7.639zm2.149 5.775l.017.007c.54.214.818.839.624 1.406-1.143 3.472-3.91 6.184-6.829 8.12a24.572 24.572 0 0 1-7.911 3.33c-.44.072-.881-.131-1.126-.52a1.226 1.226 0 0 1-.01-1.284c.76-.509 1.602-.873 2.484-1.075 3.594-1.053 6.826-3.152 9.317-6.052a25.76 25.76 0 0 0 2.171-3.477 1.033 1.033 0 0 1 1.263-.455zm3.779 11.377a1.01 1.01 0 0 1 .834-.257c.3.045.567.226.73.494a14.353 14.353 0 0 0 3.734 3.75 44.049 44.049 0 0 0 5 2.46c1.208.64.046 2.54-1.085 2.004-3.568-1.195-7.163-3.155-9.24-6.534-.386-.564-.648-1.462.027-1.917zm-3.804 4.257c1.483-.493 2.618.982 3.773 1.694 2.433 2.001 5.367 3.085 8.148 4.409.463.236.71.774.594 1.298a1.12 1.12 0 0 1-1.078.897 27.536 27.536 0 0 1-5.787-2.513c-1.765-.93-3.262-2.367-5.1-3.14-1.024.255-2 .68-2.893 1.26a39.81 39.81 0 0 1-7.661 3.225c-.487.092-1.073.362-1.517 0a1.175 1.175 0 0 1-.483-1.088 1.15 1.15 0 0 1 .703-.95c1.765-.78 3.653-1.228 5.401-2.069 2.038-.845 3.846-2.21 5.9-3.023zm-3.434 8.117A16.012 16.012 0 0 1 29.457 48a20.007 20.007 0 0 1 4.785 2.175c1.758.976 3.74 1.522 5.409 2.658.825.746.066 2.383-1.003 2.143-3.293-.95-6.14-3-9.372-4.132-2.95 1.123-5.709 2.74-8.755 3.605-1.395.542-2.15-1.837-.851-2.356 1.697-.892 3.573-1.39 5.282-2.274zm2.322 3.593c1.789-1.111 3.613.284 5.236 1.157.607.427 1.54.788 1.475 1.835.129.835-.619 1.448-1.213 1.596-1.379-.333-2.552-1.398-3.936-1.71-1.226.232-2.274 1.143-3.479 1.475-.468.033-.914-.246-1.163-.729a1.84 1.84 0 0 1-.028-1.586 9.65 9.65 0 0 1 3.108-2.038z"/></svg>
